icons/repo-template-16.svg

<svg width="16" height="16" viewBox="0 0 16 16" fill="none" xmlns="http://www.w3.org/2000/svg">
<path fill-rule="evenodd" clip-rule="evenodd" d="M6 0.75C6 0.335786 6.33579 0 6.75 0H9.25C9.66421 0 10 0.335786 10 0.75C10 1.16421 9.66421 1.5 9.25 1.5H6.75C6.33579 1.5 6 1.16421 6 0.75ZM11 0.75C11 0.335786 11.3358 0 11.75 0H13.25C13.6642 0 14 0.335786 14 0.75V2.25C14 2.66421 13.6642 3 13.25 3C12.8358 3 12.5 2.66421 12.5 2.25V1.5H11.75C11.3358 1.5 11 1.16421 11 0.75ZM4.99244 0.661524C5.05109 1.07156 4.76624 1.45151 4.3562 1.51017C3.91965 1.57261 3.57261 1.91965 3.51017 2.3562C3.45151 2.76624 3.07156 3.05109 2.66152 2.99244C2.25148 2.93379 1.96663 2.55384 2.02528 2.1438C2.18209 1.0475 3.0475 0.182092 4.1438 0.025279C4.55384 -0.0333726 4.93379 0.251484 4.99244 0.661524ZM2.75 4C3.16421 4 3.5 4.33579 3.5 4.75V6.25C3.5 6.66421 3.16421 7 2.75 7C2.33579 7 2 6.66421 2 6.25V4.75C2 4.33579 2.33579 4 2.75 4ZM13.25 4C13.6642 4 14 4.33579 14 4.75V6.25C14 6.66421 13.6642 7 13.25 7C12.8358 7 12.5 6.66421 12.5 6.25V4.75C12.5 4.33579 12.8358 4 13.25 4ZM2.75 8C3.16421 8 3.5 8.33579 3.5 8.75V9.01772C3.58165 9.00604 3.66512 9 3.75 9H4.25C4.66421 9 5 9.33579 5 9.75C5 10.1642 4.66421 10.5 4.25 10.5H3.75C3.61193 10.5 3.5 10.6119 3.5 10.75V11.5C3.5 11.78 3.61407 12.0319 3.80018 12.2143C4.09603 12.5042 4.10084 12.9791 3.81094 13.2749C3.52103 13.5708 3.04618 13.5756 2.75033 13.2857C2.28817 12.8328 2 12.1994 2 11.5V10.75V8.75C2 8.33579 2.33579 8 2.75 8ZM13.25 8C13.6642 8 14 8.33579 14 8.75V9.75V13.25C14 13.6642 13.6642 14 13.25 14H10.75C10.3358 14 10 13.6642 10 13.25C10 12.8358 10.3358 12.5 10.75 12.5H12.5V10.5H11.75C11.3358 10.5 11 10.1642 11 9.75C11 9.33579 11.3358 9 11.75 9H12.5V8.75C12.5 8.33579 12.8358 8 13.25 8ZM6 9.75C6 9.33579 6.33579 9 6.75 9H9.25C9.66421 9 10 9.33579 10 9.75C10 10.1642 9.66421 10.5 9.25 10.5H6.75C6.33579 10.5 6 10.1642 6 9.75ZM5 12.25V15.5C5 15.706 5.23519 15.8236 5.4 15.7L6.85 14.6125C6.93889 14.5458 7.06111 14.5458 7.15 14.6125L8.6 15.7C8.76481 15.8236 9 15.706 9 15.5V12.25C9 12.1119 8.88807 12 8.75 12H5.25C5.11193 12 5 12.1119 5 12.25Z" fill="#24292E"/>
</svg>

<svg xmlns="http://www.w3.org/2000/svg" width="16" height="16" viewBox="0 0 16 16"><path fill-rule="evenodd" d="M6 .75A.75.75 0 016.75 0h2.5a.75.75 0 010 1.5h-2.5A.75.75 0 016 .75zm5 0a.75.75 0 01.75-.75h1.5a.75.75 0 01.75.75v1.5a.75.75 0 01-1.5 0V1.5h-.75A.75.75 0 0111 .75zM4.992.662a.75.75 0 01-.636.848c-.436.063-.783.41-.846.846a.75.75 0 01-1.485-.212A2.501 2.501 0 014.144.025a.75.75 0 01.848.637zM2.75 4a.75.75 0 01.75.75v1.5a.75.75 0 01-1.5 0v-1.5A.75.75 0 012.75 4zm10.5 0a.75.75 0 01.75.75v1.5a.75.75 0 01-1.5 0v-1.5a.75.75 0 01.75-.75zM2.75 8a.75.75 0 01.75.75v.268A1.72 1.72 0 013.75 9h.5a.75.75 0 010 1.5h-.5a.25.25 0 00-.25.25v.75c0 .28.114.532.3.714a.75.75 0 01-1.05 1.072A2.495 2.495 0 012 11.5V8.75A.75.75 0 012.75 8zm10.5 0a.75.75 0 01.75.75v4.5a.75.75 0 01-.75.75h-2.5a.75.75 0 010-1.5h1.75v-2h-.75a.75.75 0 010-1.5h.75v-.25a.75.75 0 01.75-.75zM6 9.75A.75.75 0 016.75 9h2.5a.75.75 0 010 1.5h-2.5A.75.75 0 016 9.75zm-1 2.5v3.25a.25.25 0 00.4.2l1.45-1.087a.25.25 0 01.3 0L8.6 15.7a.25.25 0 00.4-.2v-3.25a.25.25 0 00-.25-.25h-3.5a.25.25 0 00-.25.25z"/></svg>
